X: 32901
T: Pot Still, The
R: reel
M: 4/4
K: Gmajor
|:G,2|"G"B,DGD EDB,D|"C "CDEC A,3"Am" G,|"G"B,DGD EDB,D|"C"EDEG"D" F2A,G,|
"G"B,DGD EDB,D|"C"CDEC "Am" A,2 Ac|"Em"BGAF "D"GEDB,|1 "Am"CD"Bm"EF "G"G2:|2 CDEF G2Ac||
|:"G"BGFG dGcG|"G"BA "Bm"(3 GAB "C"c2Ac|"G"BGFG dGcG|"G"BA"Em"GA "D"F2Ac|
"G"BGFG dGcG|1 "G"BA (3 "Bm"GAB "C"c2ga|"Em"bgaf "D" gedB|"Am"edef "C"gedc:|
[2 "G"BA (3 GAB "C"c2Ac|"Em"BGAF "D"GEDB,|"Am"CD"Bm"EF "G"G2||

